src/16/actions/format-insert-node.svg

<svg xmlns="http://www.w3.org/2000/svg" width="16" height="16"><defs><style id="current-color-scheme" type="text/css"></style></defs><path d="M6 3v1H1v1h5v2h4V5h5V4h-5V3H6zm6 5v2h-2v1h2v2h1v-2h2v-1h-2V8h-1z" fill="currentColor" color="#565656"/></svg>

<svg xmlns="http://www.w3.org/2000/svg" width="16" height="16" viewBox="0 0 16 16">
 <defs>
  <style id="current-color-scheme" type="text/css">
   .ColorScheme-Text { color:#565656; } .ColorScheme-Highlight { color:#5294e2; }
  </style>
 </defs>
 <path style="fill:currentColor" class="ColorScheme-Text" d="M 6 3 L 6 4 L 1 4 L 1 5 L 6 5 L 6 7 L 10 7 L 10 5 L 15 5 L 15 4 L 10 4 L 10 3 L 6 3 z M 12 8 L 12 10 L 10 10 L 10 11 L 12 11 L 12 13 L 13 13 L 13 11 L 15 11 L 15 10 L 13 10 L 13 8 L 12 8 z"/>
</svg>
